X:643
T:Da Fiddler's Soond
C:Joe Buchanan's Scottish Tome - Page 193.1
I:193 1
C:Violet Tulloch
R:Reel
Z:Carl Allison
L:1/8
M:4/4
K:A
e>d | c>AG>B A2 ED | C>B,A,>G, A,2 Bc | d>cd>e fedc | B>e^d>f edcB |
c>AG>B A2 ED | C>B,A,>G, A,B,CA, | D>EF>G ABcd | e>dc>B A2 :|
cd | e2 ce a>ga>f | e>dc>B A2 Bc | d>cd>e fedc | B>e^d>f e2 fg |
ag^df edfe | c>AG>B A2 EC | D>EF>G ABcd | edcB A2 cd |
e2 ce a>ga>f | e>dc>B A2 Bc | d>cd>e fedc | B<e^d<f e2 fg |
ag^df edfe | c>AG>B A2 EC | D>EF>G ABcd | efge a2 |]
